humanity-icon-theme/Humanity/actions/16/edit-paste.svg

<?xml version="1.0" encoding="UTF-8" standalone="no"?>
<!-- Created with Inkscape (http://www.inkscape.org/) -->

<svg
   xmlns:svg="http://www.w3.org/2000/svg"
   xmlns="http://www.w3.org/2000/svg"
   xmlns:xlink="http://www.w3.org/1999/xlink"
   version="1.1"
   width="16"
   height="16"
   id="svg3150">
  <defs
     id="defs3152">
    <linearGradient
       id="linearGradient3611">
      <stop
         id="stop3613"
         style="stop-color:#9d7d53;stop-opacity:1"
         offset="0" />
      <stop
         id="stop3615"
         style="stop-color:#ad8757;stop-opacity:1"
         offset="1" />
    </linearGradient>
    <linearGradient
       id="linearGradient3666">
      <stop
         id="stop3668"
         style="stop-color:#9b784b;stop-opacity:1"
         offset="0" />
      <stop
         id="stop3670"
         style="stop-color:#c1a581;stop-opacity:1"
         offset="1" />
    </linearGradient>
    <linearGradient
       id="linearGradient3931">
      <stop
         id="stop3933"
         style="stop-color:#8d8f8a;stop-opacity:1"
         offset="0" />
      <stop
         id="stop3935"
         style="stop-color:#c1c1c1;stop-opacity:1"
         offset="1" />
    </linearGradient>
    <linearGradient
       x1="-53.179272"
       y1="16.539951"
       x2="-52.184364"
       y2="5.3934226"
       id="linearGradient4547"
       xlink:href="#linearGradient3931"
       gradientUnits="userSpaceOnUse"
       gradientTransform="matrix(0.3000362,0,0,0.3120485,22.157115,-0.3741276)" />
    <linearGradient
       id="linearGradient3600">
      <stop
         id="stop3602"
         style="stop-color:#f4f4f4;stop-opacity:1"
         offset="0" />
      <stop
         id="stop3604"
         style="stop-color:#dbdbdb;stop-opacity:1"
         offset="1" />
    </linearGradient>
    <linearGradient
       x1="25.132275"
       y1="6.7287393"
       x2="25.132275"
       y2="47.013336"
       id="linearGradient4545"
       xlink:href="#linearGradient3600"
       gradientUnits="userSpaceOnUse"
       gradientTransform="matrix(0.3715633,0,0,0.3334383,0.08245335,-0.0025171)" />
    <linearGradient
       x1="19.508596"
       y1="48.171482"
       x2="19.187244"
       y2="12.994198"
       id="linearGradient2837"
       xlink:href="#linearGradient3666"
       gradientUnits="userSpaceOnUse"
       gradientTransform="matrix(0.3715633,0,0,0.3334383,-4.9175462,-2.0022179)" />
    <linearGradient
       id="linearGradient3269">
      <stop
         id="stop3271"
         style="stop-color:#787878;stop-opacity:1"
         offset="0" />
      <stop
         id="stop3273"
         style="stop-color:#bebebe;stop-opacity:1"
         offset="0.34446934" />
      <stop
         id="stop3275"
         style="stop-color:#c8c8c8;stop-opacity:1"
         offset="0.3731544" />
      <stop
         id="stop3277"
         style="stop-color:#e6e6e6;stop-opacity:1"
         offset="0.48990577" />
      <stop
         id="stop3279"
         style="stop-color:#8c8c8c;stop-opacity:1"
         offset="1" />
    </linearGradient>
    <linearGradient
       x1="321.57819"
       y1="86.050087"
       x2="321.57819"
       y2="96.245491"
       id="linearGradient2902"
       xlink:href="#linearGradient3269"
       gradientUnits="userSpaceOnUse"
       gradientTransform="matrix(0.41034562,0,0,0.51289447,-125.44842,-44.955451)" />
    <linearGradient
       x1="4.0676694"
       y1="14.059999"
       x2="3.7218053"
       y2="2.0026724"
       id="linearGradient3617"
       xlink:href="#linearGradient3611"
       gradientUnits="userSpaceOnUse" />
  </defs>
  <g
     id="layer1">
    <path
       d="m 1.4999738,2.5002992 9.0000002,0 0.0024,11.0023738 -9.0047472,0.0597 0.00235,-11.0620738 z"
       id="path2835"
       style="fill:url(#linearGradient2837);fill-opacity:1;stroke:url(#linearGradient3617);stroke-width:0.9952535;stroke-linecap:butt;stroke-linejoin:round;stroke-miterlimit:4;stroke-opacity:1;stroke-dasharray:none;stroke-dashoffset:0;display:inline" />
    <path
       d="m 6.0247621,12.547449 -3.5122099,0.0597 0.00235,-9.1516259 L 9.985,3.5152241"
       id="path3672"
       style="opacity:0.12000002;fill:none;stroke:#fefefd;stroke-width:0.9952535;stroke-linecap:butt;stroke-linejoin:round;stroke-miterlimit:4;stroke-opacity:1;stroke-dasharray:none;stroke-dashoffset:0;display:inline" />
    <path
       d="m 6.499974,4.5 9,0 0.0024,11.002374 -9.0047472,0.0597 L 6.499974,4.5 z"
       id="rect2594"
       style="fill:url(#linearGradient4545);fill-opacity:1;stroke:url(#linearGradient4547);stroke-width:0.9952535;stroke-linecap:butt;stroke-linejoin:round;stroke-miterlimit:4;stroke-opacity:1;stroke-dasharray:none;stroke-dashoffset:0;display:inline" />
    <path
       d="m 8.5746037,10.529851 4.9253963,0 M 8.5746037,8.5298507 11.5,8.53 m -2.9253963,3.999851 3.9253963,0 M 8.5746037,6.5298507 13.5,6.5298512"
       id="path2838"
       style="opacity:0.2;fill:none;stroke:#000000;stroke-width:0.995;stroke-linecap:square;stroke-linejoin:round;stroke-miterlimit:4;stroke-opacity:1;stroke-dasharray:none;stroke-dashoffset:0;display:inline" />
    <path
       d="M 4.5,0.4999999 C 5,2 4.3984701,2.3879959 3.5,2.4872819 l 0,1.02579 5,-0.013072 0,-1 C 7.2593337,2.5062099 7,2 7.5,0.4999999 l -3,0 z"
       id="path4675"
       style="fill:url(#linearGradient2902);fill-opacity:1;stroke:#656565;stroke-width:0.99827468;stroke-linecap:round;stroke-linejoin:round;stroke-miterlimit:4;stroke-opacity:1;stroke-dasharray:none;stroke-dashoffset:0.50000001;display:inline;enable-background:new" />
  </g>
</svg>

<?xml version="1.0" encoding="UTF-8" standalone="no"?>
<!-- Created with Inkscape (http://www.inkscape.org/) -->
<svg id="svg3150" xmlns="http://www.w3.org/2000/svg" height="16" width="16" version="1.1" xmlns:xlink="http://www.w3.org/1999/xlink">
 <defs id="defs3152">
  <linearGradient id="linearGradient4547" y2="5.3934" gradientUnits="userSpaceOnUse" x2="-52.184" gradientTransform="matrix(.30004 0 0 .31205 22.157 -.37413)" y1="16.54" x1="-53.179">
   <stop id="stop3933" style="stop-color:#8d8f8a" offset="0"/>
   <stop id="stop3935" style="stop-color:#c1c1c1" offset="1"/>
  </linearGradient>
  <linearGradient id="linearGradient4545" y2="47.013" gradientUnits="userSpaceOnUse" x2="25.132" gradientTransform="matrix(.37156 0 0 .33344 .082453 -.0025171)" y1="6.7287" x1="25.132">
   <stop id="stop3602" style="stop-color:#f4f4f4" offset="0"/>
   <stop id="stop3604" style="stop-color:#dbdbdb" offset="1"/>
  </linearGradient>
  <linearGradient id="linearGradient2837" y2="12.994" gradientUnits="userSpaceOnUse" x2="19.187" gradientTransform="matrix(.37156 0 0 .33344 -4.9175 -2.0022)" y1="48.171" x1="19.509">
   <stop id="stop3668" style="stop-color:#9b784b" offset="0"/>
   <stop id="stop3670" style="stop-color:#c1a581" offset="1"/>
  </linearGradient>
  <linearGradient id="linearGradient2902" y2="96.245" gradientUnits="userSpaceOnUse" x2="321.58" gradientTransform="matrix(.41035 0 0 .51289 -125.45 -44.955)" y1="86.05" x1="321.58">
   <stop id="stop3271" style="stop-color:#787878" offset="0"/>
   <stop id="stop3273" style="stop-color:#bebebe" offset=".34447"/>
   <stop id="stop3275" style="stop-color:#c8c8c8" offset=".37315"/>
   <stop id="stop3277" style="stop-color:#e6e6e6" offset=".48991"/>
   <stop id="stop3279" style="stop-color:#8c8c8c" offset="1"/>
  </linearGradient>
  <linearGradient id="linearGradient3617" y2="2.0027" gradientUnits="userSpaceOnUse" x2="3.7218" y1="14.06" x1="4.0677">
   <stop id="stop3613" style="stop-color:#9d7d53" offset="0"/>
   <stop id="stop3615" style="stop-color:#ad8757" offset="1"/>
  </linearGradient>
 </defs>
 <g id="layer1">
  <path id="path2835" style="stroke-linejoin:round;stroke:url(#linearGradient3617);stroke-width:.99525;fill:url(#linearGradient2837)" d="m1.5 2.5003h9l0.0024 11.002-9.0047 0.0597 0.00235-11.062z"/>
  <path id="path3672" style="opacity:0.12;stroke-linejoin:round;stroke:#fefefd;stroke-width:.99525;fill:none" d="m6.0248 12.547-3.5122 0.0597 0.00235-9.1516l7.47 0.0598"/>
  <path id="rect2594" style="stroke-linejoin:round;stroke:url(#linearGradient4547);stroke-width:.99525;fill:url(#linearGradient4545)" d="m6.5 4.5h9l0.0024 11.002-9.0047 0.0597 0.0027-11.062z"/>
  <path id="path2838" style="opacity:.2;stroke-linejoin:round;stroke:#000;stroke-linecap:square;stroke-width:.995;fill:none" d="m8.5746 10.53h4.9254m-4.9254-2.0001 2.9254 0.0001m-2.9254 3.9999h3.9254m-3.9254-6.0001h4.9254"/>
  <path id="path4675" style="stroke-linejoin:round;stroke-width:.99827;stroke-dashoffset:0.5;stroke:#656565;stroke-linecap:round;enable-background:new;fill:url(#linearGradient2902)" d="m4.5 0.5c0.5 1.5-0.1015 1.888-1 1.9873v1.0258l5-0.013072v-1c-1.2407 0.0062-1.5-0.5-1-2h-3z"/>
 </g>
</svg>
